flaticon/dialogue/archive-2.svg

<svg xmlns="http://www.w3.org/2000/svg" width="32" height="32" viewBox="0 0 24 24">
    <path d="M 23.59375 5.019531 L 23.585938 4.800781 L 23.355469 4.800781 L 18.15625 0 L 5.84375 0 L 0.632812 4.8125 L 0.398438 4.820312 L 0.398438 24 L 23.601562 23.992188 L 23.601562 5.023438 Z M 6.15625 0.800781 L 17.84375 0.800781 L 22.175781 4.800781 L 15.59375 4.804688 L 15.527344 5.125 C 15.1875 6.789062 13.703125 8 12 8 C 10.300781 8 8.820312 6.789062 8.476562 5.121094 L 8.410156 4.800781 L 1.820312 4.804688 Z M 22.800781 23.191406 L 1.199219 23.199219 L 1.199219 18.019531 L 7.769531 18.011719 C 8.304688 19.878906 10.035156 21.199219 12 21.199219 C 13.972656 21.199219 15.703125 19.875 16.234375 18.003906 L 22.800781 18 Z M 12 20.398438 C 10.464844 20.398438 9.109375 19.414062 8.609375 17.996094 L 15.394531 17.992188 C 14.894531 19.414062 13.539062 20.398438 12 20.398438 Z M 22.800781 17.191406 L 1.199219 17.199219 L 1.199219 11.636719 L 7.777344 11.632812 C 8.316406 13.488281 10.039062 14.800781 12 14.800781 C 13.960938 14.800781 15.683594 13.484375 16.226562 11.628906 L 22.800781 11.625 Z M 8.621094 11.632812 L 15.382812 11.628906 C 14.871094 13.027344 13.527344 14 12 14 C 10.476562 14 9.128906 13.03125 8.621094 11.632812 Z M 15.59375 10.804688 L 15.585938 10.828125 L 8.414062 10.832031 L 8.410156 10.8125 L 1.199219 10.816406 L 1.199219 5.605469 L 7.769531 5.601562 C 8.304688 7.472656 10.035156 8.800781 12 8.800781 C 13.972656 8.800781 15.703125 7.476562 16.234375 5.605469 L 22.800781 5.601562 L 22.800781 10.800781 Z M 15.59375 10.804688"/>
</svg>

<svg xmlns="http://www.w3.org/2000/svg" width="32" height="32" viewBox="0 0 24 24">
    <path d="M23.594 5.02l-.008-.22h-.23l-5.2-4.8H5.844L.633 4.813l-.235.007V24l23.204-.008V5.023zM6.156.8h11.688l4.332 4-6.582.005-.067.32A3.612 3.612 0 0 1 12 8c-1.7 0-3.18-1.21-3.523-2.879l-.067-.32-6.59.004zm16.645 22.391L1.199 23.2v-5.18l6.57-.007A4.418 4.418 0 0 0 12 21.199a4.414 4.414 0 0 0 4.234-3.195L22.801 18zM12 20.398a3.608 3.608 0 0 1-3.39-2.402l6.785-.004A3.607 3.607 0 0 1 12 20.398zm10.8-3.207L1.2 17.2v-5.562l6.577-.004A4.412 4.412 0 0 0 12 14.8a4.424 4.424 0 0 0 4.227-3.172l6.574-.004zM8.622 11.633l6.762-.004A3.616 3.616 0 0 1 12 14a3.607 3.607 0 0 1-3.379-2.367zm6.973-.828l-.008.023-7.172.004-.004-.02-7.21.004v-5.21l6.57-.004A4.424 4.424 0 0 0 12 8.8a4.414 4.414 0 0 0 4.234-3.196l6.567-.003V10.8zm0 0"/>
</svg>
